X: 17440
T: Highland Skip
R: reel
M: 4/4
K: Amajor
|(ec)|B2(GB) EBGB|B2(GB) cFFc|B2(GB) EBGB|Bcef gfec|
B2(GB) EBGB|B2(GB) cFFc|B2(GB) EBGB|Bcef gee2||
Bege befe|Bege (af)f2|Bege bege|Bcef (ge)e2|
Bege bege|Bege affa|gafg efec|Bcef gee2||

